actions/22x22-light/filename-group-length.svg

<svg viewBox="0 0 22 22" xmlns="http://www.w3.org/2000/svg"><path d="m7.9257812 2.8027344c-.5655499 0-1.0234375.4598306-1.0234374 1.0253906v1.0253906h1.0234374v-.5136718c0-.28278.2308919-.5117188.5136719-.5117188h9.2207029c.28278 0 .511719.2289388.511719.5117188v9.2207032c0 .28277-.228939.513672-.511719.513672h-.513672v1.023437h1.025391c.56555 0 1.025391-.457887 1.025391-1.023437v-10.246094c0-.56556-.459841-1.0253906-1.025391-1.0253906zm-4.0976562 3.0742187c-.56556 0-1.0253906.4598306-1.0253906 1.0253907v11.2695312c0 .56556.4598306 1.025391 1.0253906 1.025391h11.269531c.56556 0 1.025391-.459831 1.025391-1.025391v-11.2695312c0-.56556-.459831-1.0253907-1.025391-1.0253907zm5.5097656 2.7871094c.55599 0 1.0857804.1095319 1.5937504.3261719 1.01634.43347 1.751263 1.1678516 2.183593 2.1757816.21779.50749.328125 1.035907.328125 1.591796 0 .55599-.110445 1.088194-.328125 1.595704-.43242 1.00783-1.167253 1.746207-2.183593 2.179687-.50789.21653-1.0378404.328125-1.5937504.328125-.5559 0-1.08624-.110435-1.59375-.328125-1.00783-.43242-1.7465975-1.170137-2.1796875-2.179687-.21703-.50589-.3222656-1.039714-.3222656-1.595704 0-.555889.1052356-1.086016.3222656-1.591796.43309-1.00955 1.1717675-1.7434616 2.1796875-2.1757816.50742-.21769 1.03786-.3261719 1.59375-.3261719zm-.2558594 1.5039065c-.20907 0-.3789062.169836-.3789062.378906v2.789063c0 .120369.0578044.227185.1464844.296874l1.6289066 1.267579c.0697.0507.150072.082031.232422.082031.114039 0 .229138-.049451.298828-.144531.12672-.16473.100717-.40453-.070313-.53125l-1.4765624-1.15625v-2.603516c0-.20907-.1717893-.378906-.3808594-.378906z" fill="#4d4d4d"/></svg>

<svg xmlns="http://www.w3.org/2000/svg" viewBox="0 0 22 22">
  <defs id="defs3051">
    <style type="text/css" id="current-color-scheme">
      .ColorScheme-Text {
        color:#4d4d4d
      }
      </style>
  </defs>
 <path 
     style="fill:currentColor;fill-opacity:1;stroke:none"      
	 class="ColorScheme-Text"
        d="M 7.9257812 2.8027344 C 7.3602313 2.8027344 6.9023437 3.262565 6.9023438 3.828125 L 6.9023438 4.8535156 L 7.9257812 4.8535156 L 7.9257812 4.3398438 C 7.9257812 4.0570638 8.1566731 3.828125 8.4394531 3.828125 L 17.660156 3.828125 C 17.942936 3.828125 18.171875 4.0570638 18.171875 4.3398438 L 18.171875 13.560547 C 18.171875 13.843317 17.942936 14.074219 17.660156 14.074219 L 17.146484 14.074219 L 17.146484 15.097656 L 18.171875 15.097656 C 18.737425 15.097656 19.197266 14.639769 19.197266 14.074219 L 19.197266 3.828125 C 19.197266 3.262565 18.737425 2.8027344 18.171875 2.8027344 L 7.9257812 2.8027344 z M 3.828125 5.8769531 C 3.262565 5.8769531 2.8027344 6.3367837 2.8027344 6.9023438 L 2.8027344 18.171875 C 2.8027344 18.737435 3.262565 19.197266 3.828125 19.197266 L 15.097656 19.197266 C 15.663216 19.197266 16.123047 18.737435 16.123047 18.171875 L 16.123047 6.9023438 C 16.123047 6.3367838 15.663216 5.8769531 15.097656 5.8769531 L 3.828125 5.8769531 z M 9.3378906 8.6640625 C 9.8938806 8.6640625 10.423671 8.7735944 10.931641 8.9902344 C 11.947981 9.4237044 12.682904 10.158086 13.115234 11.166016 C 13.333024 11.673506 13.443359 12.201923 13.443359 12.757812 C 13.443359 13.313802 13.332914 13.846006 13.115234 14.353516 C 12.682814 15.361346 11.947981 16.099723 10.931641 16.533203 C 10.423751 16.749733 9.8938006 16.861328 9.3378906 16.861328 C 8.7819906 16.861328 8.2516506 16.750893 7.7441406 16.533203 C 6.7363106 16.100783 5.9975431 15.363066 5.5644531 14.353516 C 5.3474231 13.847626 5.2421875 13.313802 5.2421875 12.757812 C 5.2421875 12.201923 5.3474231 11.671796 5.5644531 11.166016 C 5.9975431 10.156466 6.7362206 9.4225544 7.7441406 8.9902344 C 8.2515606 8.7725444 8.7820006 8.6640625 9.3378906 8.6640625 z M 9.0820312 10.167969 C 8.8729612 10.167969 8.703125 10.337805 8.703125 10.546875 L 8.703125 13.335938 C 8.703125 13.456307 8.7609294 13.563123 8.8496094 13.632812 L 10.478516 14.900391 C 10.548216 14.951091 10.628588 14.982422 10.710938 14.982422 C 10.824977 14.982422 10.940076 14.932971 11.009766 14.837891 C 11.136486 14.673161 11.110483 14.433361 10.939453 14.306641 L 9.4628906 13.150391 L 9.4628906 10.546875 C 9.4628906 10.337805 9.2911013 10.167969 9.0820312 10.167969 z "
     />
</svg>
